X:559
T:Kungavalsen nr 2,
S:efter »Florsen» i Burs.
N:(Kungsvalsen nr 1=434 å s.435.)
R:vals
O:Gotland, Burs
M:3/4
L:1/8
K:G
D2|GABcde|defgdB|dcAcBA|GABA D2|GABcde|defgdB|
dcAcBA|G4::fg|a2 dfga|b2 Bdgb|a2 Adfa|g2 fe d2|
a2 dfga|b2 Bdgb|a2 Adfa|g4::BB|B2 dddd|d2 B2 G2|
c2 e2 e2|g4 d2|g2 f2 e2|d4 Bd|d2 c2 F2|G4::B2|
c4 BA|G4 F2|GFGABG|D4 C2|B,DEFGA|B4 B2|AGFGAB|G4:|

